X:48
T:Cricket's March Over the Saltbox, The
R:jig
Z:Julie Ross, from Lee Raymond
M:6/8
K:D
DED FED|F2A d2A|Bcd A2F|E2D B2A|
DED FED|F2A d2A|Bcd A2F|1 E2D D3 :|2 E2D D2B||
:A2F FEF|d2B BAB|f2B Bdf|a2f fef|
gfe fed|efe d2A|Bcd A2F|1 E2D D2B:|2 E2D D3||
